!!!!SEGMENT: Wil3040-Jay_veu_le_regnart_II.krn
!!!id: Wil3040
!!!AGN: Chanson
!!!SCT: Bernstein (1984)
!!!voices: 3
!!!COM: Adrian Willaert
!!!OTL: J'ay veu le regnart II
**kern	**kern	**kern
*part3	*part2	*part1
*staff3	*staff2	*staff1
*I"Bassus	*I"Tenor	*I"Superius
*I'B	*I'T	*I'S
*clefF4	*clefGv2	*clefG2
*k[b-]	*k[b-]	*k[b-]
*F:	*F:	*F:
*M2/1	*M2/1	*M2/1
*met(C|)	*met(C|)	*met(C|)
=1	=1	=1
3%2.A	0r	0r
3B-y	.	.
3%2c	.	.
=2	=2	=2
3%2B-y	3%2d	0r
3%4A	3%2e	.
.	3%2f	.
=3	=3	=3
3%2c	3%2e	0r
3%2B-y	3%2d	.
[3%2A	3%2f	.
=4	=4	=4
3%2A]	3%2e	0r
3%4B-y	3%4d	.
=5	=5	=5
3%2A	3%4f	0r
3%4G	.	.
.	3%2e	.
=6	=6	=6
3%4F	3%2d	0r
.	3%4c	.
[3%2A	.	.
=7	=7	=7
3A]	3%2.e	0r
3B-y	.	.
3%2c	.	.
.	3f	.
3%2B-y	3%2g	.
=8	=8	=8
3%4A	3%2f	0r
.	3%2e	.
[3%2B-y	3%2d	.
=9	=9	=9
3B-]	3%2f	0r
3A	.	.
3%2G	3%2f	.
3%2G	3%2e	.
=10	=10	=10
3%2F	3%4f	3%2r
3%2.D	.	3%2.a
.	[3%2f	.
3D	.	3b-y
=11	=11	=11
3%2A	3f]	3%2cc
.	3e	.
3%2B-y	3%2d	3%2b-y
[3%2F	3%2d	[3%2a
=12	=12	=12
3%2F]	3%2c	3%2a]
3%2A	3%2r	3%2cc
3%2G	[3%2d	3%2b-y
=13	=13	=13
3%4D	3d]	3%4a
.	3e	.
.	3%2f	.
3%2r	3%2g	[3%2b-y
=14	=14	=14
0r	3%2d	3%2b-]
.	3%2f	3%2a
.	3%2e	3%2g
=15	=15	=15
3%2.B-y	3%2d	3%4f
.	3r	.
3A	3%2f	.
3%2G	.	3%2r
.	3e	.
=16	=16	=16
3%4F	3%2d	3%2.a
.	3%2c	.
.	.	3b-y
3%2F	3%2A	3%2cc
=17	=17	=17
3%2G	3%2B-y	3%2b-y
3%2F	3%2c	3%2a
3%2BB-y	3%2d	3%2b-y
=18	=18	=18
3%2F	3%4c	3%2a
3%4E	.	3%4g
.	3%2B-y	.
=19	=19	=19
3%2F	3%2A	3%2.f
3%2C	3%2G	.
.	.	6e
.	.	6d
3%2C	3%2G	3%2e
=	=	=
*M2/1	*M2/1	*M2/1
*met(C)	*met(C)	*met(C)
0F	1F	2f
.	.	1a
.	2r	.
.	[2c	2a
=20	=20	=20
2E	2c]	2g
2F	2c	2a
2G	2B-y	1d
2F	2A	.
=21	=21	=21
1E	2G	1g
.	1c	.
2F	.	2a
2E	2c	[2g
=22	=22	=22
2D	4B-y	4g]
.	2A	4f
2D	.	2.f
.	8GL	.
.	8FJ	.
1C	2G	.
.	.	8eL
.	.	8dJ
.	2G	2e
=23	=23	=23
[0F	1F	0f
.	2r	.
.	[2A	.
=24	=24	=24
1F]	4A]	2r
.	4B-y	.
.	2c	2.a
1r	2d	.
.	.	4b-y
.	2e	2cc
=25	=25	=25
0r	2f	2cc
.	2B-y	2dd
.	4f	2dd
.	4f	.
.	4f	2cc
.	4e	.
=26	=26	=26
2.F	2f	4a
.	.	4a
.	2d	4a
4G	.	4b-y
2A	2c	2cc
2A	[2f	4cc
.	.	4cc
=27	=27	=27
2B-y	2f]	2dd
2B-y	2g	2dd
1F	2a	1cc
.	4A	.
.	4A	.
=28	=28	=28
1r	4A	4cc
.	4B-y	4b-y
.	2c	4a
.	.	4g
4F	4c	2.a
4F	4c	.
4F	2d	.
4G	.	8gL
.	.	8fJ
=29	=29	=29
2A	2c	2e
4A	2.c	4e
4F	.	4f
2G	.	2d
.	8BnXiL	.
.	8AJ	.
2G	2Bni	2d
=30	=30	=30
1C	0c	1e
2.F	.	2.a
4E	.	4g
=31	=31	=31
2D	2.f	2a
2A	.	2cc
.	4e	.
2B-y	2d	2b-y
2F	2c	[2a
=32	=32	=32
1G	2B-y	4a]
.	.	8gL
.	.	8fJ
.	2B-y	2g
2r	2A	1a
[2F	[2A	.
=33	=33	=33
4F]	4A]	1r
4D	4B-y	.
4A	4c	.
4G	4B-y	.
2F	2A	2r
4r	[2f	[2a
[4D	.	.
=34	=34	=34
4D]	4f]	4a]
4G	4d	4b-y
4F	4a	4cc
4G	4g	4b-y
2D	2f	2a
4A	4e	4cc
4B-y	4d	4b-y
=35	=35	=35
2F	4c	2a
.	4f	.
2r	4g	4b-y
.	4.f	4a
1r	.	2g
.	16eLL	.
.	16dJJ	.
.	4e	.
.	4f	2f
.	4d	.
=36	=36	=36
4A	4c	0r
4B-y	4d	.
4c	4e	.
4B-y	2f	.
2A	.	.
.	4e	.
4.B-y	4d	.
.	[4f	.
8A	.	.
=37	=37	=37
4G	4f]	2r
4G	4e	.
2F	2f	2.a
4D	2r	.
4E	.	4g
4F	4A	4a
4G	4B-y	4d
=38	=38	=38
4C	4c	4e
2D	4B-y	2f
.	2A	.
4C	.	4e
2BB-y	4.B-y	4d
.	.	2f
.	8A	.
2C	4G	.
.	4G	4e
=39	=39	=39
1F	2F	2f
.	1A	1cc
2F	.	.
2G	2B-y	2b-y
=40	=40	=40
2F	2c	2a
2E	2c	2g
2D	2d	2f
2BB-y	2d	2b-y
=41	=41	=41
1F	1c	2a
.	.	4a
.	.	4a
4F	1r	4a
4G	.	4b-y
4F	.	2cc
4E	.	.
=42	=42	=42
2F	4A	4cc
.	4A	4cc
4D	4A	2dd
4D	4A	.
2G	2B-y	2dd
2A	4c	[2cc
.	4c	.
=43	=43	=43
1G	2d	4cc]
.	.	8bnXiL
.	.	8aJ
.	2d	2bni
1r	2c	2.cc
.	[2f	.
.	.	8bL
.	.	8aJ
=44	=44	=44
2r	2f]	1g
1c	2e	.
.	2d	1r
2B-y	2d	.
=45	=45	=45
2A	2c	0r
2G	2B-y	.
2.F	2A	.
.	[2A	.
4E	.	.
=46	=46	=46
2D	2A]	2r
1D	2B-y	1f
.	2A	.
2AA	2c	2e
=47	=47	=47
2BB-y	2B-y	2d
2C	2.A	2c
2D	.	2B-y
.	8GL	.
.	8FJ	.
2E	2G	2B-y
=48	=48	=48
2F	2A	1A
2.F	2.c	.
.	.	4a
4B-y	4d	4b-y
4A	4e	4cc
4G	4e	4b-y
=49	=49	=49
2F	2f	2a
4c	4e	4a
4B-y	4d	4g
2A	2e	2cc
4.B-y	2r	4dd
.	.	4cc
8A	.	.
=50	=50	=50
2G	4.d	2b-y
.	8e	.
1F	4f	2a
.	4d	.
.	2.c	4.a
.	.	8b-y
4.A	.	4cc
.	4f	4a
8B-y	.	.
=51	=51	=51
4c	4e	2g
4B-y	2d	.
2A	.	4r
.	4c	4a
4.B-y	2d	4g
.	.	2f
8A	.	.
4G	4.B-y	.
4G	.	4e
.	8c	.
=52	=52	=52
2F	4d	2f
.	4c	.
2r	2B-y	4.d
.	.	8e
4.D	2r	4f
.	.	4d
8E	.	.
4F	4.A	4c
4D	.	4f
.	8B-y	.
=53	=53	=53
4C	4c	4e
2D	4B-y	2f
.	2A	.
4C	.	4e
2BB-y	4.B-y	4d
.	.	2f
.	8A	.
2C	4G	.
.	4G	4e
=54	=54	=54
0F	1F	1f
.	2.A	1r
.	4B-y	.
=55	=55	=55
0r	2c	2.e
.	2c	.
.	.	4e
.	2d	2f
.	2B-y	2g
=56	=56	=56
2.AA	1A	2a
.	.	2f
4BB-y	.	.
2C	1r	1e
2C	.	.
=57	=57	=57
2D	4A	1r
.	4A	.
2D	4A	.
.	4B-y	.
1C	2c	4e
.	.	4e
.	4c	4e
.	4c	4e
=58	=58	=58
1r	2d	2f
.	2d	4f
.	.	4g
4AA	2.c	2a
4AA	.	.
4AA	.	2f
4BB-y	8B-yL	.
.	8AJ	.
=59	=59	=59
2C	2G	1e
4C	2.c	.
4C	.	.
2D	.	2r
.	8BnXiL	.
.	8AJ	.
2D	2Bni	[2f
=60	=60	=60
1C	2c	2f]
.	1c	2e
1r	.	2d
.	2B-y	2d
=61	=61	=61
1r	2A	2c
.	2d	2B-y
2r	2.c	1A
[2F	.	.
.	4B-y	.
=62	=62	=62
2F]	2A	0r
2E	2c	.
2D	2B-y	.
2D	2A	.
=63	=63	=63
2C	2r	1r
2BB-y	1f	.
1AA	.	2r
.	2e	[2cc
=64	=64	=64
1r	2d	2cc]
.	2d	2b-y
2r	2c	2a
[2d	2B-y	2g
=65	=65	=65
2d]	1A	2f
2c	.	2e
2B-y	2r	2d
2B-y	[2f	2dd
=66	=66	=66
2A	2f]	4cc
.	.	8b-yL
.	.	8aJ
2G	2e	2.b-y
1F	2d	.
.	.	4a
.	2c	[2a
=67	=67	=67
1r	2B-y	2a]
.	2B-y	2g
2r	2A	1a
[2F	[2A	.
=68	=68	=68
4F]	4A]	1r
4D	4B-y	.
4A	4c	.
4G	4B-y	.
2F	2A	2r
4r	[2f	[2a
[4D	.	.
=69	=69	=69
4D]	4f]	4a]
4G	4d	4b-y
4F	4a	4cc
4G	4g	4b-y
2D	2f	2a
4A	4e	4cc
4B-y	4d	4b-y
=70	=70	=70
2F	4c	2a
.	4f	.
2r	4g	4b-y
.	4.f	4a
1r	.	2g
.	16eLL	.
.	16dJJ	.
.	4e	.
.	4f	2f
.	4d	.
=71	=71	=71
4A	4c	0r
4B-y	4d	.
4c	4e	.
4B-y	2f	.
2A	.	.
.	4e	.
4.B-y	4d	.
.	[4f	.
8A	.	.
=72	=72	=72
4G	4f]	2r
4G	4e	.
2F	2f	2.a
4D	2r	.
4E	.	4g
4F	4A	4a
4G	4B-y	4d
=73	=73	=73
4C	4c	4e
2D	4B-y	2f
.	2A	.
4C	.	4e
2BB-y	4.B-y	4d
.	.	2f
.	8A	.
2C	4G	.
.	4G	4e
=74	=74	=74
1F	2F	4f
.	.	2a
.	2.c	.
.	.	4a
4E	.	4g
4F	4c	4a
4G	4B-y	2d
4F	4A	.
=75	=75	=75
2E	4G	2g
.	2c	.
4F	.	4a
4E	4c	4.g
2D	2F	.
.	.	8f
.	.	2f
2C	2G	.
.	.	4e
=76	=76	=76
00Fl	00Fl	00fl
==	==	==
*-	*-	*-
!!!system-decoration: [*]
!!!RDF**kern: i = editorial accidental
!!!RDF**kern: l = terminal long
!!!ENC: Benjamin Ory
!!!END: 2023/11/27
!!!EED: Benjamin Ory
!!!EEV: 2023/11/27
!!!YEC: Copyright 2023 Benjamin Ory, All Rights Reserved
!!!ONB: Translated from MusicXML on 2023/11/27
